svg/country-squared/lc.svg

<?xml version="1.0" encoding="UTF-8" standalone="no"?>
<!-- Created with Sodipodi ("http://www.sodipodi.com/") -->

<svg
   xmlns:dc="http://purl.org/dc/elements/1.1/"
   xmlns:cc="http://creativecommons.org/ns#"
   xmlns:rdf="http://www.w3.org/1999/02/22-rdf-syntax-ns#"
   xmlns:svg="http://www.w3.org/2000/svg"
   xmlns="http://www.w3.org/2000/svg"
   xmlns:sodipodi="http://sodipodi.sourceforge.net/DTD/sodipodi-0.dtd"
   xmlns:inkscape="http://www.inkscape.org/namespaces/inkscape"
   id="svg604"
   sodipodi:version="0.33pre"
   width="512"
   height="512"
   sodipodi:docname="lc.svg"
   version="1.1"
   inkscape:version="0.48.1 r9760">
  <sodipodi:namedview
     id="base"
     showgrid="true"
     snaptogrid="false"
     snaptoguides="true"
     inkscape:zoom="0.33060318"
     inkscape:cx="496.06299"
     inkscape:cy="248.03149"
     inkscape:window-width="1280"
     inkscape:window-height="723"
     inkscape:window-x="0"
     inkscape:window-y="24"
     inkscape:window-maximized="1"
     inkscape:current-layer="svg604" />
  <metadata
     id="metadata3135">
    <rdf:RDF>
      <cc:Work
         rdf:about="">
        <dc:format>image/svg+xml</dc:format>
        <dc:type
           rdf:resource="http://purl.org/dc/dcmitype/StillImage" />
      </cc:Work>
    </rdf:RDF>
  </metadata>
  <defs
     id="defs606" />
  <g
     id="flag"
     inkscape:label="#g6496">
    <rect
       style="font-size:12px;fill:#65cfff;fill-opacity:1;fill-rule:evenodd;stroke:none"
       id="rect607"
       width="512"
       height="512"
       x="0"
       y="0" />
    <path
       inkscape:connector-curvature="0"
       style="fill:#ffffff;fill-opacity:1;fill-rule:evenodd;stroke:none"
       d="M 254.82855,44.790814 428.33529,466.44194 84.229312,467.41111 254.82855,44.790814 z"
       id="path615"
       sodipodi:nodetypes="cccc" />
    <path
       inkscape:connector-curvature="0"
       style="font-size:12px;fill:#000000;fill-opacity:1;fill-rule:evenodd;stroke:none"
       d="M 255.02466,102.95086 405.07218,465.60902 107.49242,466.44194 255.02466,102.95086 z"
       id="path617"
       sodipodi:nodetypes="cccc" />
    <path
       inkscape:connector-curvature="0"
       style="font-size:12px;fill:#ffce00;fill-opacity:1;fill-rule:evenodd;stroke:none"
       d="M 254.82855,256.10168 428.33529,466.92704 84.229312,467.41111 254.82855,256.10168 z"
       id="path616"
       sodipodi:nodetypes="cccc" />
  </g>
</svg>

<?xml version="1.0" encoding="UTF-8" standalone="no"?>
<!-- Created with Sodipodi ("http://www.sodipodi.com/") -->
<svg id="svg604" xmlns:rdf="http://www.w3.org/1999/02/22-rdf-syntax-ns#" xmlns="http://www.w3.org/2000/svg" height="512" width="512" version="1.1" xmlns:cc="http://creativecommons.org/ns#" xmlns:dc="http://purl.org/dc/elements/1.1/">
 <metadata id="metadata3135">
  <rdf:RDF>
   <cc:Work rdf:about="">
    <dc:format>image/svg+xml</dc:format>
    <dc:type rdf:resource="http://purl.org/dc/dcmitype/StillImage"/>
   </cc:Work>
  </rdf:RDF>
 </metadata>
 <g id="flag" fill-rule="evenodd">
  <rect id="rect607" height="512" width="512" y="0" x="0" fill="#65cfff"/>
  <path id="path615" d="m254.83 44.791 173.51 421.65-344.11 0.97 170.6-422.62z" fill="#fff"/>
  <path id="path617" d="m255.02 102.95 150.05 362.66-297.58 0.83 147.53-363.49z"/>
  <path id="path616" d="m254.83 256.1 173.51 210.83-344.11 0.48 170.6-211.31z" fill="#ffce00"/>
 </g>
</svg>
